X: 6960
T: Chewing The Cud
R: hornpipe
M: 4/4
K: Gmajor
|:D|"G"G2G>A B>d e>d|e>d e>f "C"g>e "D"d>B|"G"G2G>A B>d e>d|"C"(3ded "D"B>A "G" G2 G:|
|:f|"Em" g2 g>f e>d B>G|"D" A>B A>G A>G E>G|"Em"g2 g>f e>d B>G|"C" (3ABA "D"E>F "G" G3:|

